!!!!SEGMENT: pl-sa--217-a-vi-21--002_pichler-johann-melchior--salve-regina-allegro-vita-dulcedo.krn
!!!cenid: 17xx:1773
!!!COM: Pichler, Johann Melchior
!!!COM-rismid: pe41011479
!!!CDT: <1695/02/19-
!!!CNT: German
!!!OPR: Salve Regina
!!!OTL: Allegro - Vita dulcedo
!!!OMV: 002
!!!PDT:
!!!AGN: Sacred
!!!SMS-siglum: PL-SA
!!!SMS-shelfmark: 217/A VI 21
!!!SMS-shelfwork: 001-002 M
!!!SMS-variant: Violino Primo: PL-SA 217/A VI 21:5-6
!!!SMS-altvar: Violino Primo: PL-SA 217/A VI 21:17-18
!!!NIFC-rismid: 1001030015
!!!URL-scan: http://bc.bdsandomierz.pl/dlibra/publication/1573/edition/1541/content
!!!ONB-nifc: UWAGA: części Salve Regina: 1. Andante molto – Salve Regina, 2. Allegro – Vita dulcedo, 3. Adagio – Ad te clamamus, 4. Allegro – Eja ergo, 5. Adagio – Et Jesum benedictum
!!!key: G
**kern	**fba	**dynam	**kern	**dynam	**kern	**dynam	**kern	**text
*	*	*	*group1	*	*group1	*	*	*
*part4	*part4	*part4	*part3	*part3	*part2	*part2	*part1	*part1
*staff4	*	*	*staff3	*	*staff2	*	*staff1	*staff1
*I"Organo.	*	*	*I"Violino Secondo.	*	*I"Violino Primo.	*	*I"Canto Solo.	*
*I'org	*	*	*I'vl 2	*	*I'vl 1	*	*I'S	*
*Iorg	*	*	*Ivioln	*	*Ivioln	*	*Isoprn	*
*ICklav	*	*	*ICstr	*	*ICstr	*	*ICvox	*
*IGcont	*	*	*IGacmp	*	*IGacmp	*	*IGsolo	*
*clefF4	*	*	*clefG2	*	*clefG2	*	*clefC1	*
*k[f#]	*	*	*k[f#]	*	*k[f#]	*	*k[f#]	*
*G:	*	*	*G:	*	*G:	*	*G:	*
*M2/4	*	*	*M2/4	*	*M2/4	*	*M2/4	*
=1	=1	=1	=1	=1	=1	=1	=1	=1
!LO:TX:t=P:problem:mixed beam	!	!	!	!	!	!	!	!
!LO:TX:t=P:problem:oznaczenie metryczne 2 lub Z	!	!	!LO:TX:t=P:problem:oznaczenie metryczne 2 lub Z	!	!LO:TX:t=P:problem:oznaczenie metryczne 2 lub Z	!	!LO:TX:t=P:problem:oznaczenie metryczne 2 lub Z	!
!LO:TX:a:B:t=Allegro.	!	!	!LO:TX:a:B:t=allegro.	!	!LO:TX:a:B:t=Allegro.	!	!LO:TX:a:B:t=allegro.	!
8G\L	.	.	1r	.	1r	.	4g/	Vi-
8GG/J	.	.	.	.	.	.	.	.
4GG/	.	.	.	.	.	.	8b\	-ta
.	.	.	.	.	.	.	8dd\	dul-
=2	=2	=2	=2	=2	=2	=2	=2	=2
8r	.	.	.	.	.	.	8gg\	-ce-
16G\LL	.	.	.	.	.	.	4dd\	-do
16A\JJ	.	.	.	.	.	.	.	.
8B\L	6	.	.	.	.	.	.	.
8c\J	3	.	.	.	.	.	8ee\	et
=3	=3	=3	=3	=3	=3	=3	=3	=3
.	.	.	.	.	.	.	(16qqee/	.
8B\L	6	.	2r	.	2r	.	8dd\)	Spes
8G\	.	.	.	.	.	.	(16cc\LL	nos-
.	.	.	.	.	.	.	16b\JJ)	.
.	.	.	.	.	.	.	(16qqdd/	.
8A\	7	.	.	.	.	.	8cc\)	.
8D\J	7	.	.	.	.	.	(16b\LL	-tra
.	.	.	.	.	.	.	16a\JJ)	.
=4	=4	=4	=4	=4	=4	=4	=4	=4
.	.	.	.	.	.	.	16qqcc/	.
!LO:TX:t=P:problem:mixed beam	!	!	!	!	!	!	!	!
8G\L	.	.	8r	.	4g/	.	(16b\LL	Sal-
.	.	.	.	.	.	.	16a\JJ)	.
!	!	!	!	!LO:DY:t=for.	!	!	!	!
8GG/J	.	.	8g/L	f	.	.	8g/	-ve
4GG/	.	.	8d/	.	8b/L	.	4r	.
.	.	.	8B/J	.	8dd/J	.	.	.
=5	=5	=5	=5	=5	=5	=5	=5	=5
8r	.	.	8G/L	.	8gg\	.	1r	.
16G\LL	.	.	16b/L	.	4dd\	.	.	.
16A\JJ	.	.	16a/JJ	.	.	.	.	.
8B\L	6	.	8g/L	.	.	.	.	.
8c\J	3	.	8g/J	.	8ee\	.	.	.
=6	=6	=6	=6	=6	=6	=6	=6	=6
.	.	.	.	.	16qqee/	.	.	.
8B\L	6	.	8g/L	.	(8dd\L	.	.	.
8G\	.	.	8g/	.	16cc\L	.	.	.
.	.	.	.	.	16b\JJ)	.	.	.
.	.	.	.	.	16qqdd/	.	.	.
8A\	7	.	8g/	.	(8cc\L	.	.	.
8D\J	7	.	8f#/J	.	16b\L	.	.	.
.	.	.	.	.	16a\JJ)	.	.	.
=7	=7	=7	=7	=7	=7	=7	=7	=7
.	.	.	.	.	16qqcc/	.	.	.
!LO:TX:t=P:problem:mixed beam	!	!	!	!	!	!	!	!
8G\L	.	.	8g/L	.	(16b\LL)	.	4g/	vi-
.	.	.	.	.	16a\J	.	.	.
8GG/J	.	.	8B/J	.	8g\J)	.	.	.
4GG/	.	.	4r	.	4r	.	8b\	-ta
.	.	.	.	.	.	.	8dd\	dul-
!	!	!	!	!	!	!	!LO:LB:g=original	!
=8	=8	=8	=8	=8	=8	=8	=8	=8
8r	.	.	1r	.	1r	.	8gg\	-ce-
16G\LL	.	.	.	.	.	.	4dd\	-do
16A\JJ	.	.	.	.	.	.	.	.
8B\L	6	.	.	.	.	.	.	.
8c\J	3	.	.	.	.	.	8ee\	et
=9	=9	=9	=9	=9	=9	=9	=9	=9
.	.	.	.	.	.	.	(16qqee/	.
8B\L	6	.	.	.	.	.	8dd\)	Spes
8G\	.	.	.	.	.	.	(16cc\LL	nos-
.	.	.	.	.	.	.	16b\JJ)	.
.	.	.	.	.	.	.	(16qqdd/	.
8A\	7	.	.	.	.	.	8cc\)	.
8D\J	7	.	.	.	.	.	(16b\LL	-tra
.	.	.	.	.	.	.	16a\JJ)	.
=10	=10	=10	=10	=10	=10	=10	=10	=10
.	.	.	.	.	.	.	16qqcc/	.
!LO:TX:t=P:problem:mixed beam	!	!	!	!	!	!	!	!
8GG/L	.	.	8r	p	8r	.	(16b\LL	Sal-
.	.	.	.	.	.	.	16a\JJ)	.
8G\	.	.	8b\L	.	8dd\L	p	8g\	-ve
8B\	6	.	8dd\	.	8dd\	.	4r	.
8G\J	.	.	8b\J	.	8dd\J	.	.	.
=11	=11	=11	=11	=11	=11	=11	=11	=11
8r	.	.	8r	.	8dd\	.	8dd\	et
8F#\L	6	.	8a/L	.	4dd\	.	4.dd\	Spes
8D\	.	.	8f#/	.	.	.	.	.
8F#\J	.	.	8a/J	.	8dd\	.	.	.
=12	=12	=12	=12	=12	=12	=12	=12	=12
8r	.	.	8r	.	(16b\LL	.	(16b\LL	nos-
.	.	.	.	.	16cc#X\	.	16cc#X\	.
8G\L	3	.	8b/L	.	16dd\	.	16dd\	.
.	.	.	.	.	16ee\JJ)	.	16ee\JJ)	.
8F#\	6	.	8a/	.	8dd\L	.	4dd\	-tra
8D\J	.	.	8f#/J	.	8dd\J	.	.	.
*	*	*	*	*	*custos:b	*	*	*
!	!	!	!	!	!LO:LB:g=original	!	!	!
=13	=13	=13	=13	=13	=13	=13	=13	=13
8r	.	.	8r	.	(16b\LL	.	(16b\LL	Sal-
.	.	.	.	.	16cc#X\	.	16cc#X\	.
8G\L	3	.	8b/L	.	16dd\	.	16dd\	.
.	.	.	.	.	16ee\JJ)	.	16ee\JJ)	.
8F#\	6	.	8a/	.	8dd\L	.	4dd\	.
8D\J	.	.	8f#/J	.	8dd\J	.	.	.
*custos:G	*	*	*	*	*	*	*	*
!LO:LB:g=original	!	!	!	!	!	!	!	!
=14	=14	=14	=14	=14	=14	=14	=14	=14
8r	.	.	8r	.	(16b\LL	.	(16b\LL	.
.	.	.	.	.	16cc#X\	.	16cc#X\	.
8G\L	3	.	8b/L	.	16dd\	.	16dd\	.
.	.	.	.	.	16ee\JJ)	.	16ee\JJ)	.
8F#\	6	.	8a/	.	8dd\L	.	4dd\	.
8D\J	.	.	8f#/J	.	8dd\J	.	.	.
!	!	!	!	!	!	!	!LO:LB:g=original	!
=15	=15	=15	=15	=15	=15	=15	=15	=15
!LO:TX:t=P:problem:mixed beam	!	!	!	!	!	!	!	!
8G\L	.	.	8d/L	.	8b\L	.	8b\L	.
8GG/J	.	.	8d/J	.	8bb\J	.	[8bb\J	.
!	!	!	!	!	!	!	!LO:TUP:a:problem:klamra łukowa	!
8r	.	.	8r	.	8r	.	24bb\LL]	.
.	.	.	.	.	.	.	24aa\	.
.	.	.	.	.	.	.	24gg\JJ	.
!	!	!	!	!	!	!	!LO:TUP:a:problem:klamra łukowa	!
8G#X\	6	.	8e/	.	8b\	.	24ff#\LL	.
.	.	.	.	.	.	.	24ee\	.
.	.	.	.	.	.	.	24dd\JJ	.
=16	=16	=16	=16	=16	=16	=16	=16	=16
!LO:TX:t=P:problem:mixed beam	!	!	!LO:TX:t=P:problem:mixed beam	!	!	!	!	!
8A\L	#	.	8e/L	.	8cc#X\L	.	8cc#X\L	.
8AA/J	.	.	8cc#X\J	.	8aa\J	.	[8aa\J	.
!	!	!	!	!	!	!	!LO:TUP:a:problem:klamra łukowa	!
8r	.	.	8r	.	8r	.	24aa\LL]	.
.	.	.	.	.	.	.	24gg\	.
.	.	.	.	.	.	.	24ff#\JJ	.
!	!	!	!	!	!	!	!LO:TUP:a:problem:klamra łukowa	!
8A\	.	.	8g/	.	8cc#X\	.	24ee\LL	.
.	.	.	.	.	.	.	24dd\	.
.	.	.	.	.	.	.	24cc#X\JJ	.
=17	=17	=17	=17	=17	=17	=17	=17	=17
!LO:TX:t=P:problem:mixed beam	!	!	!	!	!	!	!	!
8B\L	3	.	8f#/L	.	8dd\L	.	8dd\L	.
8G\	6 5	.	(16g/L	.	(16ee\L	.	(16ee\L	.
.	.	.	16a/JJ)	.	16ff#\JJ)	.	16ff#\JJ)	.
.	.	.	(<8qqf#/	.	(8qqdd/	.	(8qqdd/	.
!	!	!	!	!	!	!	!LO:TX:t=P:problem:niejednoznaczny zapis ozdobnika [przyjęto trillo]:global	!
!	!	!	!LO:TX:a:B:t=t.	!	!LO:TX:a:B:t=t.	!	!LO:TX:a:B:t=t.	!
8A\	4	.	4e/)	.	4cc#X\)	.	4cc#X\)	.
8AA/J	#3	.	.	.	.	.	.	.
!	!	!	!LO:LB:g=original	!	!	!	!	!
=18	=18	=18	=18	=18	=18	=18	=18	=18
!LO:TX:t=P:problem:mixed beam	!	!	!LO:TX:t=P:problem:mixed beam	!LO:DY:t=for.	!	!	!	!
8D\L	.	.	8d/L	f	4dd\	f	4dd\	-ve.
8DD/J	.	.	8dd\	.	.	.	.	.
4DD/	.	.	8a/	.	8ff#\L	.	4r	.
.	.	.	8f#/J	.	8aa\J	.	.	.
=19	=19	=19	=19	=19	=19	=19	=19	=19
!	!	!	!LO:TX:t=P:problem:mixed beam	!	!	!	!	!
8r	.	.	8d/L	.	8ddd\	.	0r	.
16D\LL	.	.	16ff#\L	.	4aa\	.	.	.
16E\JJ	.	.	16ee\JJ	.	.	.	.	.
8F#\L	6	.	8dd\L	.	.	.	.	.
8G\J	3	.	8dd\J	.	8bb\	.	.	.
=20	=20	=20	=20	=20	=20	=20	=20	=20
.	.	.	.	.	16qqbb/	.	.	.
!LO:TX:t=P:problem:mixed beam	!	!	!	!	!	!	!	!
8F#\L	6	.	8dd\L	.	(8aa\L	.	.	.
8D\	.	.	8dd\	.	16gg\L	.	.	.
.	.	.	.	.	16ff#\JJ)	.	.	.
.	.	.	.	.	16qqaa/	.	.	.
8E\	7	.	8dd\	.	(8gg\L	.	.	.
8AA/J	7 #	.	8cc#X\J	.	16ff#\L	.	.	.
.	.	.	.	.	16ee\JJ)	.	.	.
=21	=21	=21	=21	=21	=21	=21	=21	=21
.	.	.	.	.	16qqgg/	.	.	.
8D\L	.	.	8dd\L	.	(16ff#\LL	.	.	.
.	.	.	.	.	16ee\JJ)	.	.	.
16F#\L	6	.	16a\L	.	4dd\	.	.	.
16E\JJ	.	.	16g\JJ	.	.	.	.	.
8D\L	.	.	8f#/L	.	.	.	.	.
8F#\J	6	.	8a/J	.	8a/	.	.	.
=22	=22	=22	=22	=22	=22	=22	=22	=22
!LO:TX:t=P:problem:mixed beam	!	!	!	!	!LO:TX:t=P:problem:mixed beam	!	!	!
8G\L	.	.	8d/L	.	8b/L	.	.	.
8GG/J	.	.	8d/J	.	[8bb\J	.	.	.
!	!	!	!	!	!LO:TUP:a:problem:klamra łukowa	!	!	!
8r	.	.	8r	.	24bb\LL]	.	.	.
.	.	.	.	.	24aa\	.	.	.
.	.	.	.	.	24gg\JJ	.	.	.
!	!	!	!	!	!LO:TUP:a:problem:klamra łukowa	!	!	!
8G#X\	6	.	8b/	.	24ff#\LL	.	.	.
.	.	.	.	.	24ee\	.	.	.
.	.	.	.	.	24dd\JJ	.	.	.
=23	=23	=23	=23	=23	=23	=23	=23	=23
!LO:TX:t=P:problem:mixed beam	!	!	!LO:TX:t=P:problem:mixed beam	!	!	!	!	!
8A\L	#	.	8e/L	.	8cc#X\L	.	1r	.
8AA/J	.	.	8cc#X\J	.	[8aa\J	.	.	.
!	!	!	!	!	!LO:TUP:a:problem:klamra łukowa	!	!	!
8r	.	.	8r	.	24aa\LL]	.	.	.
.	.	.	.	.	24gg\	.	.	.
.	.	.	.	.	24ff#\JJ	.	.	.
!	!	!	!	!	!LO:TUP:a:problem:klamra łukowa	!	!	!
8A\	.	.	8g/	.	24ee\LL	.	.	.
.	.	.	.	.	24dd\	.	.	.
.	.	.	.	.	24cc#X\JJ	.	.	.
*	*	*	*	*	*custos:dd	*	*	*
!	!	!	!	!	!LO:LB:g=original	!	!	!
=24	=24	=24	=24	=24	=24	=24	=24	=24
!LO:TX:t=P:problem:mixed beam	!	!	!LO:TUP:b:problem:klamra łukowa	!	!LO:TUP:a:problem:klamra łukowa	!	!	!
8B\L	3	.	24f#/LL	.	24dd\LL	.	.	.
.	.	.	24g/	.	24ee\	.	.	.
.	.	.	24a/JJ	.	24ff#\JJ	.	.	.
!	!	!	!LO:TUP:a:problem:klamra łukowa	!	!LO:TUP:a:problem:klamra łukowa	!	!	!
8G\	.	.	24b\LL	.	24gg\LL	.	.	.
.	.	.	24cc#X\	.	24aa\	.	.	.
.	.	.	24dd\JJ	.	24bb\JJ	.	.	.
8A\	4	.	8f#/L	.	8a\L	.	.	.
!	!	!	!LO:TX:a:B:t=t.	!	!	!	!	!
8AA/J	#3	.	8e/J	.	8cc#X\J	.	.	.
=25	=25	=25	=25	=25	=25	=25	=25	=25
!LO:TX:t=P:problem:mixed beam	!	!	!	!	!	!	!	!
8D\L	.	.	4d/	.	4dd\	.	4d/	vi-
8DD/J	.	.	.	.	.	.	.	.
4DD/	.	.	4r	.	4r	.	8f#/	-ta
.	.	.	.	.	.	.	8a\	dul-
=26	=26	=26	=26	=26	=26	=26	=26	=26
8r	.	.	1r	.	1r	.	8dd\	-ce-
16D\LL	.	.	.	.	.	.	4a\	-do
16E\JJ	.	.	.	.	.	.	.	.
8F#\L	6	.	.	.	.	.	.	.
8G\J	3	.	.	.	.	.	8b\	et
*custos:F	*	*	*	*	*	*	*	*
!LO:LB:g=original	!	!	!	!	!	!	!LO:LB:g=original	!
=27	=27	=27	=27	=27	=27	=27	=27	=27
.	.	.	.	.	.	.	(16qqb/	.
!LO:TX:t=P:problem:mixed beam	!	!	!	!	!	!	!	!
8F#\L	6	.	.	.	.	.	8a\)	Spes
8D\	.	.	.	.	.	.	(16g/LL	nos-
.	.	.	.	.	.	.	16f#/JJ)	.
.	.	.	.	.	.	.	(16qqa/	.
8E\	7	.	.	.	.	.	8g/)	.
8AA/J	7 #	.	.	.	.	.	(16f#/LL	-tra
.	.	.	.	.	.	.	16e/JJ)	.
=28	=28	=28	=28	=28	=28	=28	=28	=28
.	.	.	.	.	.	.	16qqg/	.
8D\L	.	.	8r	.	8r	.	(16f#/LL	Sal-
.	.	.	.	.	.	.	16e/JJ)	.
16F#\L	6	.	16a/LL	p	8a\L	p	8d/	-ve
16E\JJ	.	.	16g/JJ	.	.	.	.	.
8D\L	.	.	8f#/L	.	8dd\	.	4r	.
8E\J	.	.	8g/J	.	8dd\J	.	.	.
=29	=29	=29	=29	=29	=29	=29	=29	=29
8F#\L	6	.	8a/L	.	8.dd\L	.	8.dd\	vi-
8F#\	.	.	8a/	.	.	.	.	.
.	.	.	.	.	(32ccn\LL	.	(32cc\LLL	-ta
.	.	.	.	.	32b\JJJ)	.	32b\JJJ)	.
8F#\	.	.	8a/	.	8a\L	.	8a\	.
8F#\J	n5	.	8a/J	.	8cc\J	.	8cc\	dul-
=30	=30	=30	=30	=30	=30	=30	=30	=30
!	!	!	!LO:TX:t=P:problem:mixed beam	!	!	!	!	!
.	.	.	.	.	(16qqdd/	.	(16qqdd/	.
8G\L	4	.	8d/L	.	8cc\L)	.	8cc\)	-ce-
8G\	3	.	8d/	.	8b\J	.	8b\	-do
!	!	!	!	!	!LO:TUP:a:problem:klamra łukowa	!	!	!
8G\	.	.	8dd\	.	24bb\LL	.	8r	.
.	.	.	.	.	24aa\	.	.	.
.	.	.	.	.	24gg\JJ	.	.	.
!	!	!	!	!	!LO:TUP:a:problem:klamra łukowa	!	!	!
8G\J	.	.	8b\J	.	24ff#\LL	.	8dd\	et
.	.	.	.	.	24gg\	.	.	.
.	.	.	.	.	24dd\JJ	.	.	.
=31	=31	=31	=31	=31	=31	=31	=31	=31
8F#\L	6	.	8a/L	.	8.dd\L	.	8.dd\	Spes
8F#\	.	.	8a/	.	.	.	.	.
.	.	.	.	.	(32cc\LL	.	(32cc\LLL	.
.	.	.	.	.	32b\JJJ)	.	32b\JJJ)	.
8F#\	.	.	8a/	.	8a\L	.	8a\	no-
8F#\J	5	.	8a/J	.	8cc\J	.	8cc\	-stra
*	*	*	*custos:d	*	*	*	*custos:cc	*
!	!	!	!LO:LB:g=original	!	!	!	!LO:PB:g=original	!
=32	=32	=32	=32	=32	=32	=32	=32	=32
.	.	.	.	.	(16qqdd/	.	(16qqdd/	.
!LO:TX:t=P:problem:mixed beam	!	!	!	!	!	!	!	!
8G\L	4	.	8d/L	.	8cc\L)	.	8cc\)	Sal-
8G\	3	.	8d/J	.	8b\J	.	8b\	-ve
!	!	!	!LO:TUP:b:problem:klamra łukowa	!	!LO:TUP:b:problem:klamra łukowa	!	!	!
8G\	.	.	24g/LL	.	24g/LL	.	8r	.
.	.	.	24d/	.	24d/	.	.	.
.	.	.	24B/JJ	.	24B/JJ	.	.	.
8GG/J	.	.	8G/	.	8G/	.	8b\	et
=33	=33	=33	=33	=33	=33	=33	=33	=33
8r	.	.	1r	.	1r	.	4ee\	Spes
8E\L	9	.	.	.	.	.	.	.
.	.	.	.	.	.	.	(16qqdd/	.
8E\	6\	.	.	.	.	.	8cc#X\)	no-
8E\J	5	.	.	.	.	.	8b\	-stra
=34	=34	=34	=34	=34	=34	=34	=34	=34
8F#\L	#	.	.	.	.	.	(16a#X\LL	Sal-
.	.	.	.	.	.	.	16b\	.
8F#\	.	.	.	.	.	.	16cc#X\	.
.	.	.	.	.	.	.	16dd\JJ)	.
8F#\	.	.	.	.	.	.	(16ee\LL	.
.	.	.	.	.	.	.	16ff#\JJ)	.
!	!	!	!	!	!	!	!LO:TUP:a:problem:klamra łukowa	!
8F#\J	.	.	.	.	.	.	24gg\LL	.
.	.	.	.	.	.	.	24ff#\	.
.	.	.	.	.	.	.	24ee\JJ	.
=35	=35	=35	=35	=35	=35	=35	=35	=35
!LO:TX:t=P:problem:mixed beam	!	!	!	!	!	!	!LO:TUP:a:problem:klamra łukowa	!
8B\L	3	.	2r	.	2r	.	24dd\LL	.
.	.	.	.	.	.	.	24cc#X\	.
.	.	.	.	.	.	.	24dd\JJ	.
!	!	!	!	!	!	!	!LO:TUP:a:problem:klamra łukowa	!
8E\	6 5	.	.	.	.	.	24ee\LL	.
.	.	.	.	.	.	.	24dd\	.
.	.	.	.	.	.	.	24cc#X\JJ	.
8F#\	4	.	.	.	.	.	8b\L	.
!	!	!	!	!	!	!	!LO:TX:a:B:t=t.	!
8FF#/J	#3	.	.	.	.	.	8a#X\J	.
=36	=36	=36	=36	=36	=36	=36	=36	=36
!LO:TX:t=P:problem:mixed beam	!	!	!	!	!	!	!	!
8B\L	.	.	8r	.	4b\	f	4b\	-ve
!	!	!	!	!LO:DY:t=for.	!	!	!	!
8BB/J	.	.	8b/L	f	.	.	.	.
4BB/	.	.	8g/	.	8dd\L	.	4r	.
.	.	.	8d/J	.	8ff#\J	.	.	.
=37	=37	=37	=37	=37	=37	=37	=37	=37
!	!	!	!LO:TX:t=P:problem:mixed beam	!	!	!	!	!
8r	.	.	8B/L	.	8bb\	.	0r	.
16BB/LL	.	.	16dd\L	.	4ff#\	.	.	.
16C#X/JJ	.	.	16cc#X\JJ	.	.	.	.	.
8D\L	6	.	8b/L	.	.	.	.	.
8E\J	3	.	8b/J	.	8gg\	.	.	.
=38	=38	=38	=38	=38	=38	=38	=38	=38
.	.	.	.	.	16qqgg/	.	.	.
!LO:TX:t=P:problem:mixed beam	!	!	!	!	!	!	!	!
8D/L	6	.	8b/L	.	(8ff#\L	.	.	.
8BB/	.	.	8b/	.	16ee\L	.	.	.
.	.	.	.	.	16dd\JJ)	.	.	.
.	.	.	.	.	16qqff#/	.	.	.
8C#X/	7	.	8b/	.	(8ee\L	.	.	.
8F#\J	7 #	.	8a#X/J	.	16dd\L	.	.	.
!	!	!	!	!	!LO:SIC:v:s=16cc#\JJ)	!	!	!
.	.	.	.	.	16cc\JJ)	.	.	.
=39	=39	=39	=39	=39	=39	=39	=39	=39
8B\L	3	.	8b/L	.	8dd\L	.	.	.
8G#X\	6	.	8e/	.	[8bb\J	.	.	.
!	!	!	!	!	!LO:TUP:a:problem:klamra łukowa	!	!	!
8E\	#	.	8g#X/	.	24bb\LL]	.	.	.
.	.	.	.	.	24aa\	.	.	.
.	.	.	.	.	24gg#X\JJ	.	.	.
!	!	!	!	!	!LO:TUP:a:problem:klamra łukowa	!	!	!
!	!	!	!	!	!LO:N:acc=-	!	!	!
8G#X\J	5	.	8b/J	.	24ffn\LL	.	.	.
.	.	.	.	.	24ee\	.	.	.
.	.	.	.	.	24dd\JJ	.	.	.
*custos:A	*	*	*	*	*custos:cc	*	*	*
!LO:PB:g=original	!	!	!	!	!LO:PB:g=original	!	!	!
=40	=40	=40	=40	=40	=40	=40	=40	=40
8A\L	3	.	8e/L	.	8cc\L	.	.	.
8F#\	6	.	8f#/	.	[8aa\J	.	.	.
!	!	!	!	!	!LO:TUP:a:problem:klamra łukowa	!	!	!
8D\	.	.	8f#/	.	24aa\LL]	.	.	.
.	.	.	.	.	24ggn\	.	.	.
.	.	.	.	.	24ff#X\JJ	.	.	.
!	!	!	!	!	!LO:TUP:a:problem:klamra łukowa	!	!	!
8F#\J	5	.	8a/J	.	24ee\LL	.	.	.
.	.	.	.	.	24dd\	.	.	.
.	.	.	.	.	24cc\JJ	.	.	.
=41	=41	=41	=41	=41	=41	=41	=41	=41
!LO:TX:t=P:problem:mixed beam	!	!	!LO:TX:t=P:problem:mixed beam	!	!	!	!	!
8Gn\L	.	.	8d/L	.	8b\L	.	1r	.
8BB/	6	.	8dd\	.	[8gg\J	.	.	.
!	!	!	!	!	!LO:TUP:a:problem:klamra łukowa	!	!	!
8GG/	.	.	8a\	.	24gg\LL]	.	.	.
.	.	.	.	.	24ff#\	.	.	.
.	.	.	.	.	24ee\JJ	.	.	.
!	!	!	!	!	!LO:TUP:a:problem:klamra łukowa	!	!	!
8BB/J	.	.	8f#\J	.	24dd\LL	.	.	.
.	.	.	.	.	24cc\	.	.	.
.	.	.	.	.	24b\JJ	.	.	.
=42	=42	=42	=42	=42	=42	=42	=42	=42
!LO:TX:t=P:problem:mixed beam	!	!	!	!	!LO:TUP:a:problem:klamra łukowa	!	!	!
8C/L	.	.	8g/L	.	24ee\LL	.	.	.
.	.	.	.	.	24dd\	.	.	.
.	.	.	.	.	24cc\JJ	.	.	.
!	!	!	!LO:TUP:b:problem:klamra łukowa	!	!LO:TUP:a:problem:klamra łukowa	!	!	!
8G\	.	.	24b/L	.	24b\LL	.	.	.
.	.	.	24a/	.	24a\	.	.	.
.	.	.	24g/JJ	.	24g\JJ	.	.	.
!	!	!	!LO:TUP:a:problem:klamra łukowa	!	!LO:TUP:a	!	!	!
8AA/	.	.	24cc\LL	.	24cc\LL	.	.	.
.	.	.	24b\	.	24b\	.	.	.
.	.	.	24a\JJ	.	24a\JJ	.	.	.
!	!	!	!LO:TUP:b:problem:klamra łukowa	!	!LO:TUP:b:problem:klamra łukowa	!	!	!
8C/J	6	.	24g/LL	.	24g/LL	.	.	.
.	.	.	24f#/	.	24f#/	.	.	.
.	.	.	24e/JJ	.	24e/JJ	.	.	.
=43	=43	=43	=43	=43	=43	=43	=43	=43
8D\L	.	.	8d/L	.	8d/L	.	2r	.
16D\L	.	.	16d/L	.	16d/L	.	.	.
16E\JJ	.	.	16e/JJ	.	16e/JJ	.	.	.
16D\LL	.	.	16d/LL	.	16d/LL	.	.	.
16C\	.	.	16c/	.	16c/	.	.	.
16BB\	.	.	16B/	.	16B/	.	.	.
16AA\JJ	.	.	16A/JJ	.	16A/JJ	.	.	.
!	!	!	!	!	!	!	!LO:LB:g=original	!
=44	=44	=44	=44	=44	=44	=44	=44	=44
!LO:TX:t=P:problem:mixed beam	!	!	!	!LO:DY:a:t=piano	!	!	!	!
8GG/L	.	.	8G/L	p	8G/L	.	4g/	Vi-
!	!	!	!	!	!	!LO:DY:t=piano.	!	!
8G\J	.	.	8g/	.	8g/	p	.	.
4G\	.	.	8d/	.	8b/	.	8b\	-ta
.	.	.	8B/J	.	8dd/J	.	8dd\	dul-
=45	=45	=45	=45	=45	=45	=45	=45	=45
8r	.	.	8G/L	.	8gg\	.	8gg\	-ce-
16G\LL	.	.	16b/L	.	4dd\	.	4dd\	-do
16A\JJ	.	.	16a/JJ	.	.	.	.	.
8B\L	6	.	8g/L	.	.	.	.	.
8c\J	3	.	8g/J	.	8ee\	.	8ee\	et
*	*	*	*custos:g	*	*	*	*	*
!	!	!	!LO:LB:g=original	!	!	!	!	!
=46	=46	=46	=46	=46	=46	=46	=46	=46
.	.	.	.	.	16qqee/	.	(16qqee/	.
8B\L	6	.	8g/L	.	(8dd\L	.	8dd\)	Spes
8G\	.	.	8g/	.	16cc\L	.	(16cc\LL	nos-
.	.	.	.	.	16b\JJ)	.	16b\JJ)	.
.	.	.	.	.	16qqdd/	.	(16qqdd/	.
8A\	7	.	8g/	.	(8cc\L	.	8cc\)	.
8D\J	7	.	8f#/J	.	16b\L	.	(16b\LL	-tra
.	.	.	.	.	16a\JJ)	.	16a\JJ)	.
=47	=47	=47	=47	=47	=47	=47	=47	=47
!LO:TX:t=P:problem:mixed beam	!	!	!	!	!	!	!	!
.	.	.	.	.	.	.	16qqcc/	.
8G\L	.	.	8g/L	.	8b\L	.	(16b\LL	Sal-
.	.	.	.	.	.	.	16a\JJ)	.
16BB/L	6	.	8g/J	.	8dd\	.	8g\	-ve
16AA/JJ	.	.	.	.	.	.	.	.
8GG/L	.	.	8g/L	.	8dd\	.	4r	.
8AA/J	.	.	16f#/L	.	8dd\J	.	.	.
.	.	.	16e/JJ	.	.	.	.	.
=48	=48	=48	=48	=48	=48	=48	=48	=48
!	!	!	!LO:TX:t=P:problem:mixed beam	!	!	!	!	!
8BB/L	6	.	8d/L	.	8dd\	.	(16dd\LL	et
.	.	.	.	.	.	.	16b\JJ)	.
8BB/	.	.	8dd\	.	4gg\	.	(4g/	Spes
8BB/	.	.	8dd\	.	.	.	.	.
8BB/J	n5	.	8dd\J	.	8ffn\	.	8fn/)	.
!	!	!	!	!	!	!	!LO:LB:g=original	!
=49	=49	=49	=49	=49	=49	=49	=49	=49
.	.	.	.	.	(8qqgg/	.	(<16qqg/	.
8C/L	n4	.	8g/L	.	8ffn\L)	.	8fn/)	no-
8C/	3	.	8g/	.	8ee\	.	8e/	-stra.
8C/	.	.	8g/	.	8ee\	.	8r	.
8C/J	.	.	8g/J	.	8ee\J	.	8ee\	Spes
=50	=50	=50	=50	=50	=50	=50	=50	=50
!	!	!	!LO:TX:t=P:problem:mixed beam	!	!	!	!	!
8C#X/L	6	.	8e/L	.	8ee\	.	(16ee\LL	nos-
.	.	.	.	.	.	.	16cc#X\JJ)	.
8C#/	.	.	8e/	.	4aa\	.	4a\	.
8C#/	.	.	8ee\	.	.	.	.	.
8C#/J	5	.	8ee\J	.	8gg\	.	8g/	-tra
=51	=51	=51	=51	=51	=51	=51	=51	=51
.	.	.	.	.	16qqaa/	.	(16qqa/	.
!LO:TX:t=P:problem:mixed beam	!	!	!	!	!	!	!	!
8D/L	4	.	8a\L	.	8gg\L	.	8g/)	Sal-
8d\	#3	.	8a\	.	8ff#X\J	.	8f#X/	-ve
8B\	6	.	8dd\	.	8r	.	8r	.
8G\J	.	.	8dd\J	.	8dd\	.	8dd\	Spes
*custos:c	*	*	*	*	*	*	*	*
!LO:LB:g=original	!	!	!	!	!LO:LB:g=original	!	!	!
=52	=52	=52	=52	=52	=52	=52	=52	=52
!LO:TX:t=P:problem:mixed beam	!	!	!	!	!	!	!	!
8c\L	9	.	(8dd\L	.	8ee\L	.	4ee\	nos-
8C/J	.	.	8cc\J)	.	8ee\	.	.	.
!	!	!	!	!	!	!	!LO:TUP:a:problem:klamra łukowa	!
8r	.	.	8ee\L	.	8ccc\	.	24ccc\LL	.
.	.	.	.	.	.	.	24bb\	.
.	.	.	.	.	.	.	24aa\JJ	.
!	!	!	!	!	!	!	!LO:TUP:a:problem:klamra łukowa	!
8A\	.	.	8ee\J	.	[8ccc\J	.	24gg\LL	-tra
.	.	.	.	.	.	.	24ff#\	.
.	.	.	.	.	.	.	24ee\JJ	.
=53	=53	=53	=53	=53	=53	=53	=53	=53
!LO:TX:t=P:problem:mixed beam	!	!	!	!	!	!	!	!
8B\L	9	.	8dd\L	.	8ccc\L]	.	4dd\	Sal-
8BB/J	.	.	8dd\	.	8ccc\	.	.	.
!	!	!	!	!	!	!	!LO:TUP:a:problem:klamra łukowa	!
8r	.	.	8dd\	.	8bb\	.	24bb\LL	.
.	.	.	.	.	.	.	24aa\	.
.	.	.	.	.	.	.	24gg\JJ	.
!	!	!	!	!	!	!	!LO:TUP:a:problem:klamra łukowa	!
8G\	.	.	8dd\J	.	[8bb\J	.	24ff#\LL	.
.	.	.	.	.	.	.	24ee\	.
.	.	.	.	.	.	.	24dd\JJ	.
!	!	!	!	!	!	!	!LO:LB:g=original	!
=54	=54	=54	=54	=54	=54	=54	=54	=54
!LO:TX:t=P:problem:mixed beam	!	!	!	!	!	!	!	!
8A\L	9	.	8cc\L	.	8bb\L]	.	4cc\	.
8AA/J	.	.	8cc\	.	8bb\	.	.	.
!	!	!	!	!	!	!	!LO:TUP:a:problem:klamra łukowa	!
8r	.	.	8cc\	.	8aa\	.	24aa\LL	.
.	.	.	.	.	.	.	24gg\	.
.	.	.	.	.	.	.	24ff#\JJ	.
!	!	!	!	!	!	!	!LO:TUP:a:problem:klamra łukowa	!
8F#\	.	.	8cc\J	.	[8aa\J	.	24ee\LL	.
.	.	.	.	.	.	.	24dd\	.
.	.	.	.	.	.	.	24cc\JJ	.
=55	=55	=55	=55	=55	=55	=55	=55	=55
!LO:TX:t=P:problem:mixed beam	!	!	!	!	!	!	!LO:TUP:a:problem:klamra łukowa	!
8G\L	9	.	8b\L	.	8aa\L]	.	24b\LL	.
.	.	.	.	.	.	.	24cc\	.
.	.	.	.	.	.	.	24dd\JJ	.
*	*	*	*	*	*	*	*Xtuplet	*
!	!	!	!	!	!	!	!LO:TUP:a:problem:klamra łukowa	!
8C/	.	.	8cc\	.	8gg\	.	24ee\LL	.
.	.	.	.	.	.	.	24dd\	.
.	.	.	.	.	.	.	24cc\JJ	.
8D/	4	.	8b\	.	8gg\	.	8b\L	.
!	!	!	!	!	!	!	!LO:TX:a:B:t=t.	!
8DD/J	3	.	8a\J	.	8ff#\J	.	8a\J	.
=56	=56	=56	=56	=56	=56	=56	=56	=56
!LO:TX:t=P:problem:mixed beam	!	!	!	!	!	!	!	!
8G\L	.	f	8g/L	.	4g/	f	4g\	-ve
!	!	!	!	!LO:DY:t=for.	!	!	!	!
8GG/J	.	.	8g/	f	.	.	.	.
4GG/	.	.	8d/	.	8b/L	.	4r	.
.	.	.	8B/J	.	8dd/J	.	.	.
=57	=57	=57	=57	=57	=57	=57	=57	=57
8r	.	.	8G/L	.	8gg\	.	1r	.
16G\LL	.	.	16b/L	.	4dd\	.	.	.
16A\JJ	.	.	16a/JJ	.	.	.	.	.
8B\L	6	.	8g/L	.	.	.	.	.
8c\J	3	.	8g/J	.	8ee\	.	.	.
=58	=58	=58	=58	=58	=58	=58	=58	=58
.	.	.	.	.	16qqee/	.	.	.
8B\L	6	.	8g/L	.	(8dd\L	.	.	.
8G\	.	.	8g/	.	16cc\L	.	.	.
.	.	.	.	.	16b\JJ)	.	.	.
.	.	.	.	.	16qqdd/	.	.	.
8A\	7	.	8g/	.	(8cc\L	.	.	.
8D\J	7	.	8f#/J	.	16b\L	.	.	.
.	.	.	.	.	16a\JJ)	.	.	.
=59	=59	=59	=59	=59	=59	=59	=59	=59
.	.	.	.	.	16qqcc/	.	.	.
!LO:TX:t=P:problem:mixed beam	!	!	!	!	!	!	!	!
8GG/L	.	.	8g/L	.	(16b\LL	.	4r	.
.	.	.	.	.	16a\J	.	.	.
8G\	.	.	8b/J	.	8g\J)	.	.	.
8B\	6	.	8dd\L	p	8r	.	8r	.
8G\J	.	.	8dd\J	.	8dd\	p	8dd\	Spes
*	*	*	*custos:dd	*	*	*	*	*
!	!	!	!LO:LB:g=original	!	!	!	!	!
=60	=60	=60	=60	=60	=60	=60	=60	=60
!LO:TX:t=P:problem:mixed beam	!	!	!	!	!	!	!	!
8c\L	9	.	(8dd\L	.	8ee\L	.	4ee\	nos-
8C/J	.	.	8cc\J)	.	8ee\	.	.	.
!	!	!	!	!	!	!	!LO:TUP:a:problem:klamra łukowa	!
8r	.	.	8ee\L	.	8ccc\	.	24ccc\LL	.
.	.	.	.	.	.	.	24bb\	.
.	.	.	.	.	.	.	24aa\JJ	.
*	*	*	*	*	*	*	*tuplet	*
!	!	!	!	!	!	!	!LO:TUP:a:problem:klamra łukowa	!
8A\	.	.	8ee\J	.	[8ccc\J	.	24gg\LL	-tra
.	.	.	.	.	.	.	24ff#\	.
.	.	.	.	.	.	.	24ee\JJ	.
*	*	*	*	*	*	*	*custos:dd	*
!	!	!	!	!	!	!	!LO:LB:g=original	!
=61	=61	=61	=61	=61	=61	=61	=61	=61
!LO:TX:t=P:problem:mixed beam	!	!	!	!	!	!	!	!
8B\L	9	.	8dd\L	.	8ccc\L]	.	4dd\	Sal-
8BB/J	.	.	8dd\	.	8ccc\	.	.	.
*	*	*	*	*	*	*	*Xtuplet	*
!	!	!	!	!	!	!	!LO:TUP:a:problem:klamra łukowa	!
8r	.	.	8dd\	.	8bb\	.	24bb\LL	.
.	.	.	.	.	.	.	24aa\	.
.	.	.	.	.	.	.	24gg\JJ	.
!	!	!	!	!	!	!	!LO:TUP:a:problem:klamra łukowa	!
8G\	.	.	8dd\J	.	[8bb\J	.	24ff#\LL	.
.	.	.	.	.	.	.	24ee\	.
.	.	.	.	.	.	.	24dd\JJ	.
=62	=62	=62	=62	=62	=62	=62	=62	=62
!LO:TX:t=P:problem:mixed beam	!	!	!	!	!	!	!	!
8A\L	9	.	8cc\L	.	8bb\L]	.	4cc\	.
8AA/J	.	.	8cc\	.	8bb\	.	.	.
!	!	!	!	!	!	!	!LO:TUP:a:problem:klamra łukowa	!
8r	.	.	8cc\	.	8aa\	.	24aa\LL	.
.	.	.	.	.	.	.	24gg\	.
.	.	.	.	.	.	.	24ff#\JJ	.
!	!	!	!	!	!	!	!LO:TUP:a:problem:klamra łukowa	!
8F#\	5	.	8cc\J	.	[8aa\J	.	24ee\LL	.
.	.	.	.	.	.	.	24dd\	.
.	.	.	.	.	.	.	24cc\JJ	.
=63	=63	=63	=63	=63	=63	=63	=63	=63
!LO:TX:t=P:problem:mixed beam	!	!	!	!	!	!	!LO:TUP:a:problem:klamra łukowa	!
8G\L	.	.	8b\L	.	8aa\L]	.	24b\LL	.
.	.	.	.	.	.	.	24cc\	.
.	.	.	.	.	.	.	24dd\JJ	.
!	!	!	!	!	!	!	!LO:TUP:a:problem:klamra łukowa	!
8C\	6 5	.	8cc\	.	8gg\	.	24ee\LL	.
.	.	.	.	.	.	.	24dd\	.
.	.	.	.	.	.	.	24cc\JJ	.
8D\	4	.	8b\	.	8gg\	.	8b\L	.
!	!	!	!	!	!	!	!LO:TX:a:B:t=t.	!
8DD/J	3	.	8a\J	.	8ff#\J	.	8a\J	.
=64	=64	=64	=64	=64	=64	=64	=64	=64
!LO:TX:t=P:problem:mixed beam	!	!LO:DY:t=for.	!	!	!	!	!	!
8G\L	.	f	8g/L	.	4g/	f	4g\	-ve
!	!	!	!	!LO:DY:t=for.	!	!	!	!
8GG/J	.	.	8g/	f	.	.	.	.
4GG/	.	.	8d/	.	8b/L	.	4r	.
.	.	.	8B/J	.	8dd/J	.	.	.
=65	=65	=65	=65	=65	=65	=65	=65	=65
8r	.	.	8G/L	.	8gg\	.	0r	.
16G\LL	.	.	16b/L	.	4dd\	.	.	.
16A\JJ	.	.	16a/JJ	.	.	.	.	.
8B\L	6	.	8g/L	.	.	.	.	.
8c\J	3	.	8g/J	.	8ee\	.	.	.
!LO:LB:g=original	!	!	!	!	!	!	!	!
=66	=66	=66	=66	=66	=66	=66	=66	=66
.	.	.	.	.	16qqee/	.	.	.
8B\L	6	.	8g/L	.	(8dd\L	.	.	.
8G\	.	.	8g/	.	16cc\L	.	.	.
.	.	.	.	.	16b\JJ)	.	.	.
.	.	.	.	.	16qqdd/	.	.	.
8A\	7	.	8g/	.	(8cc\L	.	.	.
8D\J	7	.	8f#/J	.	16b\L	.	.	.
.	.	.	.	.	16a\JJ)	.	.	.
!	!	!	!	!	!LO:LB:g=original	!	!	!
=67	=67	=67	=67	=67	=67	=67	=67	=67
!LO:TX:t=P:problem:mixed beam	!	!	!	!	!	!	!	!
8G\L	.	.	8g/L	.	8b\L	.	.	.
8GG/J	.	.	8b/J	.	[8ddd\J	.	.	.
!	!	!	!	!	!LO:TUP:a:problem:klamra łukowa	!	!	!
8r	.	.	8r	.	24ddd\LL]	.	.	.
.	.	.	.	.	24ccc\	.	.	.
.	.	.	.	.	24bb\JJ	.	.	.
!	!	!	!	!	!LO:TUP:a:problem:klamra łukowa	!	!	!
8B\	6	.	8dd\	.	24aa\LL	.	.	.
.	.	.	.	.	24gg\	.	.	.
.	.	.	.	.	24ff#\JJ	.	.	.
=68	=68	=68	=68	=68	=68	=68	=68	=68
!LO:TX:t=P:problem:mixed beam	!	!	!LO:TX:t=P:problem:mixed beam	!	!LO:TX:t=P:problem:mixed beam	!	!	!
8c\L	.	.	8g/L	.	8ee\L	.	.	.
8C/J	.	.	8ee\J	.	8c/J	.	.	.
!	!	!	!	!	!LO:TUP:a:problem:klamra łukowa	!	!	!
8r	.	.	8r	.	24ccc\LL	.	.	.
.	.	.	.	.	24bb\	.	.	.
.	.	.	.	.	24aa\JJ	.	.	.
!	!	!	!	!	!LO:TUP:a:problem:klamra łukowa	!	!	!
8A\	.	.	8cc\	.	24gg\LL	.	.	.
.	.	.	.	.	24ff#\	.	.	.
.	.	.	.	.	24ee\JJ	.	.	.
=69	=69	=69	=69	=69	=69	=69	=69	=69
!LO:TX:t=P:problem:mixed beam	!	!	!LO:TX:t=P:problem:mixed beam	!	!LO:TX:t=P:problem:mixed beam	!	!	!
8B\L	6	.	8f#/L	.	8dd\L	.	0r	.
8BB/J	.	.	8dd\J	.	8B/J	.	.	.
!	!	!	!	!	!LO:TUP:a:problem:klamra łukowa	!	!	!
8r	.	.	8r	.	24bb\LL	.	.	.
.	.	.	.	.	24aa\	.	.	.
.	.	.	.	.	24gg\JJ	.	.	.
!	!	!	!	!	!LO:TUP:a:problem:klamra łukowa	!	!	!
8G\	.	.	8b/	.	24ff#\LL	.	.	.
.	.	.	.	.	24ee\	.	.	.
.	.	.	.	.	24dd\JJ	.	.	.
=70	=70	=70	=70	=70	=70	=70	=70	=70
!LO:TX:t=P:problem:mixed beam	!	!	!LO:TX:t=P:problem:mixed beam	!	!LO:TX:t=P:problem:mixed beam	!	!	!
8A\L	3	.	8e/L	.	8cc\L	.	.	.
8AA/J	.	.	8cc\J	.	8A/J	.	.	.
!	!	!	!	!	!LO:TUP:a:problem:klamra łukowa	!	!	!
8r	.	.	8r	.	24aa\LL	.	.	.
.	.	.	.	.	24gg\	.	.	.
.	.	.	.	.	24ff#\JJ	.	.	.
!	!	!	!	!	!LO:TUP:a:problem:klamra łukowa	!	!	!
8D\	5	.	8a/	.	24ee\LL	.	.	.
.	.	.	.	.	24dd\	.	.	.
.	.	.	.	.	24cc\JJ	.	.	.
=71	=71	=71	=71	=71	=71	=71	=71	=71
!LO:TX:t=P:problem:mixed beam	!	!	!LO:TX:t=P:problem:mixed beam	!	!LO:TUP:a:problem:klamra łukowa	!	!	!
8G\L	.	.	8d/L	.	24b\LL	.	.	.
.	.	.	.	.	24cc\	.	.	.
.	.	.	.	.	24dd\JJ	.	.	.
!	!	!	!LO:TUP:a:problem:klamra łukowa	!	!LO:TUP:a:problem:klamra łukowa	!	!	!
8C\	.	.	24cc\L	.	24ee\LL	.	.	.
.	.	.	24b\	.	24dd\	.	.	.
.	.	.	24a\JJ	.	24cc\JJ	.	.	.
8D\	4	.	8g/L	.	8b/L	.	.	.
!	!	!	!LO:TX:a:B:t=t.	!	!LO:TX:a:B:t=t.	!	!	!
8DD/J	3	.	8f#/J	.	8a/J	.	.	.
=72	=72	=72	=72	=72	=72	=72	=72	=72
!LO:TX:t=P:problem:mixed beam	!	!	!	!	!	!	!	!
8G\L	.	.	8g/L	.	8g/L	.	.	.
8GG/J	.	.	8G/J	.	8G/J	.	.	.
4GG;/	.	.	4G;/	.	4G;/	.	.	.
==	==	==	==	==	==	==	==	==
*-	*-	*-	*-	*-	*-	*-	*-	*-
!!!system-decoration: <s1>[(g1)]<s4>
!!!RDF**kern: > = above
!!!RDF**kern: < = below
!!!RDF**dynam: p = "pia."
!!!RDF**dynam: f = "forte."
!!!ENC: Andrzej Kubiczek
!!!END: 2021-02-07
!!!ENC: Andrzej Kubiczek
!!!END: 2022-01-14
